static/logos/steam-glyph-color.svg

<svg width="32" height="32" viewBox="0 0 32 32" fill="none" xmlns="http://www.w3.org/2000/svg">
<path d="M2.57016 20.0269C4.3009 25.7964 9.65472 30 15.9911 30C23.7279 30 30 23.7318 30 16C30 8.26803 23.7279 2 15.9911 2C8.56683 2 2.492 7.77172 2.01221 15.0699C2.01221 17.1667 2.01221 18.0417 2.57016 20.0269Z" fill="url(#paint0_linear_1261_311)"/>
<path d="M15.2706 12.5629L11.8426 17.5394C11.0345 17.5027 10.221 17.7313 9.54572 18.1751L2.01829 15.0783C2.01829 15.0783 1.84411 17.942 2.56999 20.0763L7.89147 22.2706C8.15866 23.4639 8.97779 24.5106 10.1863 25.0141C12.1635 25.8397 14.4433 24.8987 15.2658 22.9219C15.4799 22.4052 15.5797 21.8632 15.5652 21.3224L20.5904 17.8218C23.5257 17.8218 25.9114 15.4304 25.9114 12.4937C25.9114 9.55667 23.5257 7.16742 20.5904 7.16742C17.7553 7.16742 15.1117 9.64119 15.2706 12.5629ZM14.4469 22.5782C13.8103 24.1056 12.054 24.8302 10.5273 24.1945C9.82302 23.9013 9.29128 23.3642 8.98452 22.7236L10.7167 23.4411C11.8426 23.9097 13.1343 23.3762 13.6023 22.2514C14.0718 21.1254 13.5392 19.8323 12.4139 19.3636L10.6233 18.6222C11.3142 18.3602 12.0997 18.3506 12.8336 18.6558C13.5734 18.9635 14.1475 19.5427 14.4517 20.283C14.756 21.0232 14.7548 21.8404 14.4469 22.5782ZM20.5904 16.0433C18.6364 16.0433 17.0455 14.451 17.0455 12.4937C17.0455 10.5379 18.6364 8.94512 20.5904 8.94512C22.5457 8.94512 24.1365 10.5379 24.1365 12.4937C24.1365 14.451 22.5457 16.0433 20.5904 16.0433ZM17.9341 12.4883C17.9341 11.0158 19.127 9.82153 20.5964 9.82153C22.0671 9.82153 23.2599 11.0158 23.2599 12.4883C23.2599 13.9608 22.0671 15.154 20.5964 15.154C19.127 15.154 17.9341 13.9608 17.9341 12.4883Z" fill="white"/>
<defs>
<linearGradient id="paint0_linear_1261_311" x1="16.0061" y1="2" x2="16.0061" y2="30" gradientUnits="userSpaceOnUse">
<stop stop-color="#111D2E"/>
<stop offset="0.21248" stop-color="#051839"/>
<stop offset="0.40695" stop-color="#0A1B48"/>
<stop offset="0.5811" stop-color="#132E62"/>
<stop offset="0.7376" stop-color="#144B7E"/>
<stop offset="0.87279" stop-color="#136497"/>
<stop offset="1" stop-color="#1387B8"/>
</linearGradient>
</defs>
</svg>

<svg xmlns="http://www.w3.org/2000/svg" width="64" height="64" fill="none" viewBox="0 0 32 32"><path fill="url(#a)" d="M2.57 20.027C4.3 25.797 9.655 30 15.991 30 23.728 30 30 23.732 30 16S23.728 2 15.991 2C8.567 2 2.492 7.772 2.012 15.07c0 2.097 0 2.972.558 4.957"/><path fill="#fff" d="m15.27 12.563-3.427 4.976a3.9 3.9 0 0 0-2.297.636l-7.528-3.097s-.174 2.864.552 4.998l5.321 2.195a3.88 3.88 0 0 0 2.295 2.743 3.887 3.887 0 0 0 5.38-3.692l5.024-3.5a5.33 5.33 0 0 0 5.321-5.328 5.33 5.33 0 0 0-5.32-5.327c-2.836 0-5.48 2.474-5.32 5.396m-.823 10.015a3 3 0 0 1-3.92 1.617 2.98 2.98 0 0 1-1.542-1.471l1.732.717a2.208 2.208 0 0 0 1.697-4.077l-1.79-.742a2.98 2.98 0 0 1 2.21.034c.74.308 1.314.887 1.618 1.627s.303 1.557-.005 2.295m6.143-6.535a3.55 3.55 0 0 1-3.544-3.55 3.55 3.55 0 0 1 3.544-3.548 3.55 3.55 0 0 1 3.547 3.549c0 1.957-1.591 3.55-3.547 3.55m-2.656-3.555a2.665 2.665 0 0 1 2.662-2.666 2.666 2.666 0 0 1 0 5.332 2.664 2.664 0 0 1-2.662-2.666"/><defs><linearGradient id="a" x1="16.006" x2="16.006" y1="2" y2="30" gradientUnits="userSpaceOnUse"><stop stop-color="#111D2E"/><stop offset=".212" stop-color="#051839"/><stop offset=".407" stop-color="#0A1B48"/><stop offset=".581" stop-color="#132E62"/><stop offset=".738" stop-color="#144B7E"/><stop offset=".873" stop-color="#136497"/><stop offset="1" stop-color="#1387B8"/></linearGradient></defs></svg>
